assets/img/icons/duotone-icons/Code/Error-circle.svg

<?xml version="1.0" encoding="UTF-8"?>
<svg width="24px" height="24px" viewBox="0 0 24 24" version="1.1" xmlns="http://www.w3.org/2000/svg" xmlns:xlink="http://www.w3.org/1999/xlink">
    <!-- Generator: Sketch 52.2 (67145) - http://www.bohemiancoding.com/sketch -->
    <title>Stockholm-icons / Code / Error-circle</title>
    <desc>Created with Sketch.</desc>
    <g id="Stockholm-icons-/-Code-/-Error-circle" stroke="none" stroke-width="1" fill="none" fill-rule="evenodd">
        <rect id="bound" x="0" y="0" width="24" height="24"></rect>
        <circle id="Oval-5" fill="#335EEA" opacity="0.3" cx="12" cy="12" r="10"></circle>
        <path d="M12.0355339,10.6213203 L14.863961,7.79289322 C15.2544853,7.40236893 15.8876503,7.40236893 16.2781746,7.79289322 C16.6686989,8.18341751 16.6686989,8.81658249 16.2781746,9.20710678 L13.4497475,12.0355339 L16.2781746,14.863961 C16.6686989,15.2544853 16.6686989,15.8876503 16.2781746,16.2781746 C15.8876503,16.6686989 15.2544853,16.6686989 14.863961,16.2781746 L12.0355339,13.4497475 L9.20710678,16.2781746 C8.81658249,16.6686989 8.18341751,16.6686989 7.79289322,16.2781746 C7.40236893,15.8876503 7.40236893,15.2544853 7.79289322,14.863961 L10.6213203,12.0355339 L7.79289322,9.20710678 C7.40236893,8.81658249 7.40236893,8.18341751 7.79289322,7.79289322 C8.18341751,7.40236893 8.81658249,7.40236893 9.20710678,7.79289322 L12.0355339,10.6213203 Z" id="Combined-Shape" fill="#335EEA"></path>
    </g>
</svg>

<svg width="24" height="24" viewBox="0 0 24 24" xmlns="http://www.w3.org/2000/svg"><g fill="none" fill-rule="evenodd"><path d="M0 0h24v24H0z"/><circle fill="#335EEA" opacity=".3" cx="12" cy="12" r="10"/><path d="M12.036 10.621l2.828-2.828a1 1 0 011.414 1.414l-2.828 2.829 2.828 2.828a1 1 0 01-1.414 1.414l-2.828-2.828-2.829 2.828a1 1 0 11-1.414-1.414l2.828-2.828-2.828-2.829a1 1 0 011.414-1.414l2.829 2.828z" fill="#335EEA"/></g></svg>
